X:1
T:Title
%%score ( 1 2 ) ( 3 4 )
L:1/8
M:4/4
K:Bb
V:1 treble nm="Choir Aahs, Unnamed-000"
V:2 treble 
V:3 bass nm="Choir Aahs, Unnamed-001"
V:4 bass 
V:1
 F2 [DB]2 [FB]2 [FA]2 | [EG]2 [DF]2- [DF]/ z/ [EG] [DF]2 | [B,F]2 [EG]2 [Gc]2 [FB]2 | [EA]2 [DB]6 | %4
w: By~Gottfried~W.~Fink,~1842 * * *||||
 F2 [DB]2 [FB]2 [FA]2 | [EG]2 [DF]2- [DF]/ z/ [EG] [DF]2 | [Fd]2 [Fc]2 [FB]2 [FA]2 | [=EG]2 F6 | %8
w: ||||
 F2 [CA]2 [CF]2 [DB]2 | [B,F]2 [Ec]2 [EF]2 [Fd]2 | [DB]2 [Ge]2 [Gd]2 [Gc]2 | %11
w: |||
 [GB]2 B2- [=EB]2 [FA]2 | F2 [DB]2 [FB]2 [FA]2 | [EG]2 [DF]2- [DF]/ z/ [EG] [DF]2 | %14
w: |||
 [B,F]2 [EG]2 [Gc]2 [FB]2 | [EA]2 [FB]6 |] %16
w: ||
V:2
 x8 | x8 | x8 | x8 | x8 | x8 | x8 | x8 | x8 | x8 | x8 | z2 F2 z4 | x8 | x8 | x8 | x8 |] %16
V:3
 F,2 [B,,B,]2 [D,F,]2 E,F, | .G,2 z2 z4 | [D,B,]2 [E,B,]2 [C,E]2 [F,D]2 | [F,,F,C]2 [B,,B,]6 | %4
 z4 z2 B,2 | [G,B,][A,C] [B,D]2 [B,,B,]2 [B,,B,]2 | [B,,F,]2 [A,,C]2 [D,B,]2 [C,C]2 | %7
 [C,B,]2 [F,A,]6 | F,2 [F,,F,]2 [A,,F,]2 [B,,F,]2 | [D,B,]2 [F,A,]2 [F,A,]2 [B,,B,]2 | %10
 G,2 [C,C]2 [D,=B,]2 [E,C]2 | [=E,_D]2 =D2 _D2 C2 | F,2 [B,,B,]2 [D,B,]2 B,-[F,B,] | %13
 [G,B,][A,C] [B,D]2 [B,,B,]2 [B,,B,]2 | [D,B,]2 [E,B,]2 [C,E]2 [F,D]2 | [F,,E]2 [B,,D]6 |] %16
V:4
 x8 | E,-[E,A,] [B,,B,]2 [B,,A,]2 [B,,B,]2 | x8 | x8 | F,2 [B,,B,]2 [D,B,]2 E,F, | x8 | x8 | x8 | %8
 x8 | x8 | x8 | z2 F,6 | z4 z2 .E,2 | x8 | x8 | x8 |] %16

